lib/svg/calendar.svg

<svg xmlns="http://www.w3.org/2000/svg" width="14" height="16" viewBox="0 0 14 16"><path d="M13 2h-1v1.5c0 .28-.22.5-.5.5h-2c-.28 0-.5-.22-.5-.5V2H6v1.5c0 .28-.22.5-.5.5h-2c-.28 0-.5-.22-.5-.5V2H2c-.55 0-1 .45-1 1v11c0 .55.45 1 1 1h11c.55 0 1-.45 1-1V3c0-.55-.45-1-1-1zm0 12H2V5h11v9zM5 3H4V1h1v2zm6 0h-1V1h1v2zM6 7H5V6h1v1zm2 0H7V6h1v1zm2 0H9V6h1v1zm2 0h-1V6h1v1zM4 9H3V8h1v1zm2 0H5V8h1v1zm2 0H7V8h1v1zm2 0H9V8h1v1zm2 0h-1V8h1v1zm-8 2H3v-1h1v1zm2 0H5v-1h1v1zm2 0H7v-1h1v1zm2 0H9v-1h1v1zm2 0h-1v-1h1v1zm-8 2H3v-1h1v1zm2 0H5v-1h1v1zm2 0H7v-1h1v1zm2 0H9v-1h1v1z"/></svg>

<?xml version="1.0" encoding="UTF-8" standalone="no"?>
<svg width="14px" height="16px" viewBox="0 0 14 16" version="1.1" xmlns="http://www.w3.org/2000/svg" xmlns:xlink="http://www.w3.org/1999/xlink">
    <!-- Generator: Sketch 3.8.3 (29802) - http://www.bohemiancoding.com/sketch -->
    <title>calendar</title>
    <desc>Created with Sketch.</desc>
    <defs></defs>
    <g id="Octicons" stroke="none" stroke-width="1" fill="none" fill-rule="evenodd">
        <g id="calendar" fill="#000000">
            <path d="M13,2 L12,2 L12,3.5 C12,3.78 11.78,4 11.5,4 L9.5,4 C9.22,4 9,3.78 9,3.5 L9,2 L6,2 L6,3.5 C6,3.78 5.78,4 5.5,4 L3.5,4 C3.22,4 3,3.78 3,3.5 L3,2 L2,2 C1.45,2 1,2.45 1,3 L1,14 C1,14.55 1.45,15 2,15 L13,15 C13.55,15 14,14.55 14,14 L14,3 C14,2.45 13.55,2 13,2 L13,2 Z M13,14 L2,14 L2,5 L13,5 L13,14 L13,14 Z M5,3 L4,3 L4,1 L5,1 L5,3 L5,3 Z M11,3 L10,3 L10,1 L11,1 L11,3 L11,3 Z M6,7 L5,7 L5,6 L6,6 L6,7 L6,7 Z M8,7 L7,7 L7,6 L8,6 L8,7 L8,7 Z M10,7 L9,7 L9,6 L10,6 L10,7 L10,7 Z M12,7 L11,7 L11,6 L12,6 L12,7 L12,7 Z M4,9 L3,9 L3,8 L4,8 L4,9 L4,9 Z M6,9 L5,9 L5,8 L6,8 L6,9 L6,9 Z M8,9 L7,9 L7,8 L8,8 L8,9 L8,9 Z M10,9 L9,9 L9,8 L10,8 L10,9 L10,9 Z M12,9 L11,9 L11,8 L12,8 L12,9 L12,9 Z M4,11 L3,11 L3,10 L4,10 L4,11 L4,11 Z M6,11 L5,11 L5,10 L6,10 L6,11 L6,11 Z M8,11 L7,11 L7,10 L8,10 L8,11 L8,11 Z M10,11 L9,11 L9,10 L10,10 L10,11 L10,11 Z M12,11 L11,11 L11,10 L12,10 L12,11 L12,11 Z M4,13 L3,13 L3,12 L4,12 L4,13 L4,13 Z M6,13 L5,13 L5,12 L6,12 L6,13 L6,13 Z M8,13 L7,13 L7,12 L8,12 L8,13 L8,13 Z M10,13 L9,13 L9,12 L10,12 L10,13 L10,13 Z" id="Shape"></path>
        </g>
    </g>
</svg>
